X:145
T: Thornton's
S: Treoir
Z: B.Black
M: 4/4
L: 1/8
R: reel
K: G
d |g2 dc BG G2 |ABcA defd |g2 dc BG G2 |AdcA G3 :|
d |df f2 dg g2 |defd edcA |df f2 dg g2 |fdcA GABc |
df f2 dg g2 | defd edcA | dg g2 bgag | fdcA G3 ||
